X:1
T:Per scelus obstructae
T:Daniel Friderici
T:Source : Bicinia sacra---Rostock---J.Richelius---1642 Editor : André Vierendeels (30/06/17).
T:Notes : Original clefs : C1, C1 Original note values have been halved Editorial accidentals above tha staff
T:Per scelus obstructae
T:©
T:©
C:Daniel Friderici
Z:©
%%score [ 1 2 ]
L:1/8
Q:1/4=120
M:2/2
K:C
V:1 treble nm="Soprano 1" snm="S 1"
V:2 treble nm="Soprano 2" snm="S 2"
V:1
 E4 A4 | EFGA B3 e | c4 B4 | z2 E2 A4 | E4 z2 e2 | c2 cB cd e2 | dccB/A/ B4 | B2 c3 c c2 | %8
w: Per sce-|lus, _ _ _ _ per|sce- lus,|per sce-|lus, per|sce- lus ob- stru- ctae sunt|au- * * * * *|res, o- ra- que|
 dcBA GE A2- | A^G/^F/ G2 A4 ::[M:6/4] ^G4 G4 A4 | B8 A4 | ^G8 G4 | B4 B4 c4 | d8 c4 | B8 B4 | %16
w: clau- * * * * * *|* * * * sae:|Chri- ste me-|a in|lau- des,|Chri- ste me-|a in|lau- des|
 c6 c2 c4 | B4 A4 ^G4 | A2 B2 c2 d2 e4 | d6 d2 e4 | d4 c4 B4 | A12 |] %22
w: o- ra e-|sol- ve tu-|* * * * a,|o- ra re-|sol- ve tu-|as.|
V:2
 z8 | z4 E4 | A4 EFGA | B3 e c4 | B4 z2 E2 | A2 A^G AB cB/A/ | BA/G/ A2 ^G4 | ^G2 A3 A A2 | %8
w: |Per|sce- lus, _ _ _|_ per sce-|lus, per|sce- lus ob- stru- ctae sunt _ _|_ _ _ _ au-|res, o- ra- que|
 Bcdc B2 c2 | B4 A4 ::[M:6/4] B4 B4 A4 | ^G8 A4 | B8 B4 | ^G4 G4 A4 | B8 c4 | d8 d4 | e6 e2 e4 | %17
w: clau- * * * * *|* sa:|Chri- ste me-|a in|la- des,|Chri- ste me-|a in|la- des,|o- ra re-|
 d4 c4 B4 | A2 E2 A2 B2 c4 | B6 B2 c4 | B4 A4 ^G4 | A12 |] %22
w: sol- ve tu-|* * * * as,|o- ra re-|sol- ve tu-|as.|

